X:1
T: Pink Floyd - Money (v1.0 Prosco)
M: 4/4
L: 1/8
Q:1/4=120
K:C
B,>
^F, B,/2x3/2 ^F,3/2x/2 A,3/2x/2| \
B,>
B,D,/2x3/2[^f/2B,/2]x/2^f-| \
[^f/2B,/2-]B,/2x/2
^F,/2 B,/2x3/2 ^F,3/2x/2 A,3/2x/2|
B,x/2
[A/2B,/2][dD,-] D,/2d/2[A/2-B,/2]A3/2| \
[B/2B,/2-]B,/2x/2^F,/2 B,/2x3/2 ^F,3/2x/2 A,3/2x/2| \
B,>
B,D,3/2B/2[d/2-B,/2]d/2x/2d/2| \
[B-B,]B/2^F,/2 [d/2-B,/2]dx/2 [B3/2^F,3/2]x/2 [^F3/2A,3/2]x/2|
[AB,]x/2[A/2B,/2][B3/2D,3/2]x/2[e/2B,/2]d/2B| \
[A-B,]A/2-[A/2-^F,/2] [A/2-B,/2]A3/2 ^F,3/2x/2 A,3/2x/2| \
B,>
B,D,3/2x/2[^f/2B,/2]x/2^f| \
[e/2B,/2-][d/2B,/2]B/2<^F,/2 B,/2x3/2 ^F,3/2x/2 A,3/2x/2|
B,>
B,[dD,-] D,/2d/2[A/2-B,/2]A3/2| \
[B/2B,/2-]B,/2x/2^F,/2 B,/2x3/2 ^F,3/2x/2 A,3/2x/2| \
B,>
B,D,- [d/2-D,/2]d/2-[d/2-B,/2]dx/2| \
[B-B,]B/2^F,/2 [d/2-B,/2]dx/2 [B3/2^F,3/2]x/2 [^F3/2A,3/2]x/2|
[A-B,]A/2B,/2[B3/2D,3/2]x/2[e/2-B,/2]ex/2| \
[d/2B,/2-]B,/2B/2-[B/2^F,/2] [A/2B,/2]x3/2 ^F,3/2x/2 A,3/2x/2| \
B,>
B,D,3/2x/2[^f3/2^F,3/2-]^F,/2-| \
[^f/2-^F,/2]^fx/2 [^f^F,]x/2[^c/2^C/2] [^F3/2^F,3/2]x/2 [A3/2A,3/2]x/2|
[^c3/2^C3/2]x/2[^f3/2^F,3/2]x/2[=f3/2F,3/2]x/2| \
[eE,]x/2[E/2E,/2] [E3/2E,3/2]x/2 [G3/2G,3/2]x/2 [A3/2A,3/2]x/2| \
[B3/2B,3/2]x/2[e3/2-D,3/2]e/2[e/2-B,/2]ed/2| \
[A-B,]A/2^F,/2 B,/2x3/2 ^F,3/2x/2 A,3/2x/2|
B,>
B,D,/2x3/2B,/2x3/2| \
B,>
^F, B,/2x3/2 ^F,3/2x/2 A,3/2x/2| \
B,>
B,D,/2x3/2[^f/2B,/2]x/2^f| \
[^f/2B,/2-]B,/2x/2^F,/2 B,/2x3/2 ^F,3/2x/2 A,3/2x/2 B,x/2[A/2B,/2]|
[d/2-D,/2]dx/2[B/2B,/2]Ax/2B,>^F,| \
B,/2x3/2^F,3/2x/2A,3/2x/2| \
B,>B,[d/2-D,/2]dx/2[B/2-B,/2]Bx/2| \
[d-B,]d/2^F,/2 [B/2B,/2]^Fx/2 [^F^F,-]^F,/2^F/2 [A3/2A,3/2]x/2|
[BB,]x/2[B/2B,/2][e/2-D,/2]ed/2[B/2-B,/2]Bx/2| \
[A-B,]A/2-[A/2-^F,/2] [A/2-B,/2]A3/2 ^F,3/2x/2 A,3/2x/2| \
B,>
B,D,/2x3/2[^f/2B,/2]x/2^f-| \
[^f/2B,/2-]B,/2
^f/2-[^f/2-^F,/2] [^f/2B,/2]x3/2 ^F,3/2x/2 A,3/2x/2|
B,>
B,[dD,-] D,/2d/2[B/2B,/2]Ax/2| \
B,>
^F, B,/2x3/2 ^F,3/2x/2 A,3/2x/2| \
B,x/2
[d/2-B,/2][d/2-D,/2]dx/2[B/2-B,/2]Bx/2| \
[d-B,]d/2^F,/2 [B/2-B,/2]Bx/2 [^F3/2^F,3/2]x/2 [AA,-]A,/2A/2|
[B-B,]B/2B,/2[e/2-D,/2]ed/2[B/2-B,/2]Bx/2| \
[B/2B,/2-][A/2-B,/2]A/2-[A/2-^F,/2] [A/2B,/2]x3/2 ^F,3/2x/2 [A3/2A,3/2]x/2| \
[B-B,]B/2B,/2[d/2-D,/2]dx/2[^f3/2^F,3/2-]^F,/2-| \
[^f/2-^F,/2]^fx/2 [^f^F,]x/2[^c/2^C/2] [^F3/2^F,3/2]x/2 [A3/2A,3/2]x/2|
[^c3/2^C3/2]x/2[^f^F,-] ^F,/2^f/2[=f3/2F,3/2]x/2| \
[eE,]x/2[B/2E,/2] [E3/2E,3/2]x/2 [G3/2G,3/2]x/2 [A3/2A,3/2]x/2| \
[BB,-]B,/2B/2[e3/2-D,3/2]e/2-[e/2-B,/2]ed/2| \
[B/2B,/2-][A/2-B,/2]A/2^F,/2 B,/2x3/2 ^F,3/2x/2 A,3/2x/2|
B,>
B,D,/2x3/2B,/2x3/2| \
B,>
^F, B,/2x3/2 ^F,3/2x/2 A,3/2x/2| \
B,>
B,D,/2x3/2[^f/2B,/2]x/2^f-| \
[^f/2B,/2-]B,/2x/2
^F,/2 B,/2x3/2 ^F,3/2x/2 A,3/2x/2 B,x/2[A/2B,/2]|
[d/2-D,/2]d3/2[B/2B,/2]Ax/2B,>^F,| \
B,/2x3/2^F,3/2x/2A,3/2x/2| \
B,>B,D,/2xB/2[d/2-B,/2]dd/2| \
[B-B,]B/2^F,/2 [d/2-B,/2]dx/2 [^F^F,-]^F,/2^F/2 [A3/2-A,3/2]A/2|
[B-B,]B/2[B/2B,/2][e/2-D,/2]ed/2[e/2B,/2]d/2B/2x/2| \
[A-B,]A/2-[A/2-^F,/2] [A/2-B,/2]A3/2- [A3/2^F,3/2]x/2 A,3/2x/2| \
B,>
B,D,/2x3/2[^f/2B,/2]x/2^f| \
[e/2B,/2-][d/2B,/2]B/2-[B/2-^F,/2] [B/2B,/2]x3/2 ^F,3/2x/2 A,3/2x/2|
B,>
B,[dD,-] D,/2d/2[B/2B,/2]Ax/2| \
B,>
^F, B,/2x3/2 ^F,3/2x/2 A,3/2x/2| \
B,>
B,D,/2x/2 d/2x/2[d/2-B,/2]dx/2| \
[B-B,]B/2^F,/2 [d/2-B,/2]dx/2 [^F3/2^F,3/2]x/2 [AA,-]A,/2A/2|
[B-B,]B/2B,/2[e/2-D,/2]ed/2[B/2-B,/2]B3/2-| \
[B/2B,/2-]
[A/2-B,/2]A/2-[A/2-^F,/2] [A/2B,/2]x3/2 ^F,3/2x/2 [A3/2A,3/2]x/2| \
[B-B,]B/2B,/2[d/2-D,/2]dx/2[^f^F,-]^F,-| \
[^f/2-^F,/2]^fx/2 [^f^F,]x/2[^c/2^C/2] [^F3/2^F,3/2]x/2 [A3/2A,3/2]x/2|
[^c3/2^C3/2]x/2[^f^F,-] ^F,/2^c/2[=f3/2F,3/2]x/2| \
[eE,]x/2[B/2E,/2] [E3/2E,3/2]x/2 [GG,-]G,/2G/2 [A3/2A,3/2]x/2| \
[BB,-]B,/2B/2[e3/2-D,3/2]e/2-[e/2-B,/2]ed/2| \
[B/2B,/2-][A/2-B,/2]A/2-[A/2-^F,/2] [A/2-B,/2]A3/2- [A^F,-][B/2^F,/2]x/2 A,3/2x/2|
B,>
^F, B,/2x3/2 B,/2x3/2 B,>^F, B,/2x3/2|
^F,3/2x/2
A,3/2x/2B,>B,| \
D,/2x3/2B,/2x3/2B,>^F,| \
B,/2x3/2^F,3/2x/2A,3/2x/2| \
B,>
B, D,/2x3/2 [^f/2B,/2]x/2^f [^f/2B,/2-][e/2B,/2]^f/2<^F,/2|
B,/2x3/2
^F,3/2x/2A,3/2x/2| \
B,>
B, [e/2-D,/2]e/2x/2d/2 [B/2B,/2]Ax/2 B,>^F,| \
B,/2x3/2
^F,3/2x/2A,3/2x/2| \
B,>B,[d/2-D,/2]dx/2[B/2-B,/2]Bx/2|
[d-B,]d/2^F,/2 [B/2-B,/2]B/2x/2B/2 [^F3/2^F,3/2]x/2 [AA,-]A,/2A/2| \
[BB,]x/2[B/2B,/2][e/2-D,/2]ed/2[B/2-B,/2]Bx/2| \
[A/2B,/2-]B,/2x/2^F,/2 B,/2x3/2 ^F,3/2x/2 A,3/2x/2| \
B,>
B,D,/2x3/2[^f/2B,/2]x/2^f|
[^f/2B,/2-]B,/2x/2^F,/2 B,/2x3/2 ^F,3/2x/2 A,3/2x/2| \
B,>
B,[e/2-D,/2]e/2 x/2d/2[B/2B,/2]Ax/2| \
B,>
^F, B,/2x3/2 ^F,3/2x/2 A,3/2x/2| \
B,>
B,D,/2x3/2[d/2-B,/2]dx/2|
[B-B,]B/2^F,/2 [d/2-B,/2]dx/2 [B3/2^F,3/2]x/2 [^F3/2A,3/2]x/2| \
[A-B,]A/2B,/2[B/2-D,/2]Bx/2[e/2-B,/2]e3/2| \
[dB,]B/2<^F,/2 [A/2B,/2]x3/2 ^F,3/2x/2 A,3/2x/2| \
B,>
B,D,/2x3/2[^f^F,-]^F,/2-[e/2^F,/2-]|
[^f/2-^F,/2]^fx/2 [^f^F,]x/2[^c/2^C/2] [^F3/2^F,3/2]x/2 [A3/2A,3/2]x/2| \
[^c3/2^C3/2]x/2[^f3/2^F,3/2]x/2[=f3/2F,3/2]x/2| \
[eE,]x/2[B/2E,/2] [E3/2E,3/2]x/2 [G3/2G,3/2]x/2 [A3/2A,3/2]x/2| \
[B3/2B,3/2]x/2[d/2D,/2-]D,/2- [A/2-D,/2]A/2-[A3/2B,3/2]x/2|
-----------------------------------------------------------------------------
...Prosco...
    ratissia 03-04-2008 11:36 AM
-----------------------------------------------------------------------------
ive made over 250 abc files if anyone has any requests plz let me know. i might have it, or i can make for u.
